X: 21091
M: 6/8
L: 1/8
K: Bb
V: 1 name="4"
g/a/ |\
bBd fFA | BB,D FBA | GEc cdB | ABG F2a |\
bBd fFA | BB,D FcB | Ggf edc | c3 B2 H|]
d/c/ |\
c2c g2g | f2e d2c | Bcd cBA | B2B "^D.C."B2 |]


